polaris-icons/icons/new-icons/DraftOrdersMajor.svg

<svg width="20" height="20" viewBox="0 0 20 20" fill="none" xmlns="http://www.w3.org/2000/svg">
<path d="M15.997 1.10348C16.1923 0.908216 16.5089 0.908216 16.7041 1.10348L17.7648 2.16414C17.9601 2.3594 17.9601 2.67598 17.7648 2.87124L16.8077 3.82836L15.0399 2.06059L15.997 1.10348Z" fill="#4A4A4A"/>
<path d="M14.3328 2.7677L16.1006 4.53547L12.27 8.36605C11.9111 8.7249 11.4293 8.93391 10.9221 8.95074L10.1501 8.97635C10.0056 8.98114 9.88714 8.86271 9.89193 8.7182L9.91754 7.94618C9.93437 7.43897 10.1434 6.95713 10.5022 6.59828L14.3328 2.7677Z" fill="#4A4A4A"/>
<path fill-rule="evenodd" clip-rule="evenodd" d="M6.97553 4.99992C6.35593 4.99992 5.82983 5.45382 5.73903 6.06674L5.15633 9.99992H7.63962C8.17766 9.99992 8.65533 10.3442 8.82547 10.8546L8.98359 11.329C9.01762 11.4311 9.11315 11.4999 9.22076 11.4999H10.7792C10.8868 11.4999 10.9824 11.4311 11.0164 11.329L11.1745 10.8546C11.3447 10.3442 11.8223 9.99992 12.3604 9.99992H14.8437L14.5081 7.73484C14.4474 7.32509 14.7303 6.94372 15.1401 6.88302C15.5498 6.82232 15.9312 7.10527 15.9919 7.51501L16.4055 10.307C16.4684 10.7315 16.5 11.1601 16.5 11.5893V13.2499C16.5 15.0449 15.0449 16.4999 13.25 16.4999H6.75C4.95507 16.4999 3.5 15.0449 3.5 13.2499V11.5893C3.5 11.1601 3.53158 10.7315 3.59447 10.307L4.25522 5.84692C4.45499 4.4985 5.6124 3.49992 6.97553 3.49992H10.75C11.1642 3.49992 11.5 3.83571 11.5 4.24992C11.5 4.66414 11.1642 4.99992 10.75 4.99992H6.97553ZM5 11.5893C5 11.5595 5.00018 11.5297 5.00055 11.4999H7.45943L7.56056 11.8033C7.79876 12.5179 8.46751 12.9999 9.22076 12.9999H10.7792C11.5325 12.9999 12.2012 12.5179 12.4394 11.8033L12.5406 11.4999H14.9994C14.9998 11.5297 15 11.5595 15 11.5893V13.2499C15 14.2164 14.2165 14.9999 13.25 14.9999H6.75C5.7835 14.9999 5 14.2164 5 13.2499V11.5893Z" fill="#4A4A4A"/>
</svg>

<svg viewBox="0 0 20 20" xmlns="http://www.w3.org/2000/svg"><path d="M15.997 1.103a.5.5 0 0 1 .707 0l1.06 1.061a.5.5 0 0 1 0 .707l-.956.957-1.768-1.767.957-.958Z" fill="#5C5F62"/><path d="m14.333 2.768 1.768 1.767-3.831 3.831a2 2 0 0 1-1.348.585l-.772.025a.25.25 0 0 1-.258-.258l.026-.772a2 2 0 0 1 .584-1.348l3.83-3.83Z" fill="#5C5F62"/><path fill-rule="evenodd" d="M6.976 5a1.25 1.25 0 0 0-1.237 1.067l-.583 3.933h2.484a1.25 1.25 0 0 1 1.185.855l.159.474a.25.25 0 0 0 .237.17h1.558a.25.25 0 0 0 .237-.17l.159-.474a1.25 1.25 0 0 1 1.185-.855h2.484l-.336-2.265a.75.75 0 1 1 1.484-.22l.413 2.792c.063.425.095.853.095 1.282v1.66a3.25 3.25 0 0 1-3.25 3.25h-6.5a3.25 3.25 0 0 1-3.25-3.25v-1.66c0-.429.032-.857.094-1.282l.661-4.46a2.75 2.75 0 0 1 2.72-2.347h3.775a.75.75 0 0 1 0 1.5h-3.774Zm-1.976 6.59v-.09h2.46l.1.303a1.75 1.75 0 0 0 1.66 1.197h1.56a1.75 1.75 0 0 0 1.66-1.197l.1-.303h2.46v1.75a1.75 1.75 0 0 1-1.75 1.75h-6.5a1.75 1.75 0 0 1-1.75-1.75v-1.66Z" fill="#5C5F62"/></svg>
